assets/dist/images/changelog/release-notes.svg

<?xml version="1.0" encoding="UTF-8"?>
<svg width="177px" height="177px" viewBox="0 0 177 177" version="1.1" xmlns="http://www.w3.org/2000/svg" xmlns:xlink="http://www.w3.org/1999/xlink">
    <!-- Generator: Sketch 41 (35326) - http://www.bohemiancoding.com/sketch -->
    <title>Release-Notes</title>
    <desc>Created with Sketch.</desc>
    <defs>
        <rect id="path-1" x="30.5637085" y="30.5637085" width="124.560967" height="124.560967" rx="10"></rect>
        <mask id="mask-2" maskContentUnits="userSpaceOnUse" maskUnits="objectBoundingBox" x="-2" y="-2" width="128.560967" height="128.560967">
            <rect x="28.5637085" y="28.5637085" width="128.560967" height="128.560967" fill="white"></rect>
            <use xlink:href="#path-1" fill="black"></use>
        </mask>
        <rect id="path-3" x="26.5637085" y="26.5637085" width="124.560967" height="124.560967" rx="10"></rect>
        <mask id="mask-4" maskContentUnits="userSpaceOnUse" maskUnits="objectBoundingBox" x="-2" y="-2" width="128.560967" height="128.560967">
            <rect x="24.5637085" y="24.5637085" width="128.560967" height="128.560967" fill="white"></rect>
            <use xlink:href="#path-3" fill="black"></use>
        </mask>
        <path d="M78.1188716,1.1043652 C83.4900176,-0.186919372 92.2319662,-0.331133283 97.642092,0.781746698 L163.382702,4.30479794 L174.418897,76.9495258 C175.249091,82.4141989 172.761388,90.0048995 168.844659,93.9216283 L94.9216283,167.844659 C91.0128681,171.75342 84.683484,171.761388 80.7667552,167.844659 L6.84372423,93.9216283 C2.93496394,90.0128681 0.27763719,82.3940952 0.908059425,76.9077504 L8.85406784,7.75641159 L78.1188716,1.1043652 Z" id="path-5"></path>
        <path d="M35,20.9992754 C35,19.3428213 36.3395514,18 37.9996142,18 L122.509766,18 L143,38.0390625 L143,174.000925 C143,175.657268 141.65403,177 139.998742,177 L38.0012583,177 C36.3437091,177 35,175.649416 35,174.000725 L35,20.9992754 Z" id="path-7"></path>
        <mask id="mask-8" maskContentUnits="userSpaceOnUse" maskUnits="objectBoundingBox" x="0" y="0" width="108" height="159" fill="white">
            <use xlink:href="#path-7"></use>
        </mask>
    </defs>
    <g id="Page-1" stroke="none" stroke-width="1" fill="none" fill-rule="evenodd">
        <g id="Release-Notes" transform="translate(-2.000000, -2.000000)">
            <g id="Rectangle" transform="translate(92.844192, 92.844192) rotate(-315.000000) translate(-92.844192, -92.844192) ">
                <use fill="#ECF8FC" fill-rule="evenodd" xlink:href="#path-1"></use>
                <use stroke="#ECF8FC" mask="url(#mask-2)" stroke-width="4" xlink:href="#path-1"></use>
            </g>
            <g id="Rectangle" transform="translate(88.844192, 88.844192) rotate(-315.000000) translate(-88.844192, -88.844192) ">
                <use fill="#DBF2F9" fill-rule="evenodd" xlink:href="#path-3"></use>
                <use stroke="#84D2E8" mask="url(#mask-4)" stroke-width="4" xlink:href="#path-3"></use>
            </g>
            <g id="Group" transform="translate(1.000000, 2.000000)">
                <g id="Group-17">
                    <g id="Group-7">
                        <mask id="mask-6" fill="white">
                            <use xlink:href="#path-5"></use>
                        </mask>
                        <g id="Rectangle"></g>
                        <path d="M39,24.9992754 C39,23.3428213 40.3395514,22 41.9996142,22 L126.509766,22 L147,42.0390625 L147,178.000925 C147,179.657268 145.65403,181 143.998742,181 L42.0012583,181 C40.3437091,181 39,179.649416 39,178.000725 L39,24.9992754 Z" id="Rectangle-37" fill="#C1E9F4" opacity="0.504076087" mask="url(#mask-6)"></path>
                        <g id="Rectangle-37" mask="url(#mask-6)" stroke-width="4" stroke="#48BDDE" fill="#FFFFFF">
                            <use mask="url(#mask-8)" xlink:href="#path-7"></use>
                        </g>
                        <polyline id="Path-2" stroke="#48BDDE" stroke-width="2" mask="url(#mask-6)" points="122 19 122 39 142 39"></polyline>
                        <rect id="Rectangle-6" fill="#DFF3F9" mask="url(#mask-6)" x="123" y="40" width="18" height="4"></rect>
                        <rect id="Rectangle-38" fill="#DBF2F9" mask="url(#mask-6)" x="69" y="83" width="55" height="2" rx="1"></rect>
                        <rect id="Rectangle-38" fill="#DBF2F9" mask="url(#mask-6)" x="69" y="91" width="55" height="2" rx="1"></rect>
                        <rect id="Rectangle-38" fill="#DBF2F9" mask="url(#mask-6)" x="69" y="99" width="45" height="2" rx="1"></rect>
                        <rect id="Rectangle-38" fill="#DBF2F9" mask="url(#mask-6)" x="69" y="111" width="55" height="2" rx="1"></rect>
                        <rect id="Rectangle-38" fill="#DBF2F9" mask="url(#mask-6)" x="69" y="119" width="55" height="2" rx="1"></rect>
                        <rect id="Rectangle-38" fill="#DBF2F9" mask="url(#mask-6)" x="69" y="127" width="45" height="2" rx="1"></rect>
                        <rect id="Rectangle-38" fill="#DBF2F9" mask="url(#mask-6)" x="69" y="139" width="55" height="2" rx="1"></rect>
                        <rect id="Rectangle-38" fill="#DBF2F9" mask="url(#mask-6)" x="69" y="147" width="55" height="2" rx="1"></rect>
                        <rect id="Rectangle-38" fill="#DBF2F9" mask="url(#mask-6)" x="69" y="155" width="45" height="2" rx="1"></rect>
                        <path d="M56.4430439,85.7870735 L54.1510165,85.7870735 L54.1510165,87.6206954 L57.3598548,87.6206954 L58.2766658,87.6206954 L58.2766658,79.8278022 L56.4430439,79.8278022 L56.4430439,85.7870735 Z" id="Combined-Shape" fill="#48BDDE" mask="url(#mask-6)" transform="translate(56.213841, 83.724249) rotate(-315.000000) translate(-56.213841, -83.724249) "></path>
                        <path d="M56.4430439,113.787073 L54.1510165,113.787073 L54.1510165,115.620695 L57.3598548,115.620695 L58.2766658,115.620695 L58.2766658,107.827802 L56.4430439,107.827802 L56.4430439,113.787073 Z" id="Combined-Shape" fill="#48BDDE" mask="url(#mask-6)" transform="translate(56.213841, 111.724249) rotate(-315.000000) translate(-56.213841, -111.724249) "></path>
                        <path d="M56.4430439,141.787073 L54.1510165,141.787073 L54.1510165,143.620695 L57.3598548,143.620695 L58.2766658,143.620695 L58.2766658,135.827802 L56.4430439,135.827802 L56.4430439,141.787073 Z" id="Combined-Shape" fill="#48BDDE" mask="url(#mask-6)" transform="translate(56.213841, 139.724249) rotate(-315.000000) translate(-56.213841, -139.724249) "></path>
                        <path d="M94.510645,47.2741469 L100.161601,53.9872281 C100.728629,54.6608314 101.188295,55.9264864 101.188295,56.8058012 L101.188295,60.5773242 C101.188295,61.4603758 100.528449,61.8888121 99.730262,61.5411353 L93.4206274,58.7927627 L93.3961501,59.0514242 C93.3263463,59.7890658 92.7559775,60.4093633 92.0540218,60.5887914 L93.2947302,63.1659607 C93.6777757,63.9616135 93.2734613,64.6066176 92.3860873,64.6066176 L85.1905035,64.6066176 C84.3056284,64.6066176 83.8972576,63.9648488 84.2818606,63.1659607 L85.5286802,60.5760974 C84.8460373,60.3823439 84.3014927,59.7769287 84.2286185,59.0514242 L84.2006804,58.7732847 L77.8463288,61.5411353 C77.0481423,61.8888121 76.3882954,61.4603758 76.3882954,60.5773242 L76.3882954,56.8058012 C76.3882954,55.9264864 76.8479621,54.6608314 77.4149898,53.9872281 L83.0478008,47.2957024 L82.738618,44.217609 C82.738618,44.217609 81.0978676,31.3165146 88.7692531,31.3165146 C96.4406386,31.3165146 94.799888,44.217609 94.799888,44.217609 L94.510645,47.2741469 Z M88.2245531,78.8625523 C90.2127782,78.8625523 91.8245531,72.5060513 91.8245531,70.5349661 C91.8245531,68.5638808 90.2127782,66.9660006 88.2245531,66.9660006 C86.236328,66.9660006 84.6245531,68.5638808 84.6245531,70.5349661 C84.6245531,72.5060513 86.236328,78.8625523 88.2245531,78.8625523 Z" id="Combined-Shape" fill-opacity="0.402881567" fill="#84D2E8" mask="url(#mask-6)" transform="translate(88.788295, 55.089533) rotate(-302.000000) translate(-88.788295, -55.089533) "></path>
                    </g>
                </g>
            </g>
        </g>
    </g>
</svg>

<svg width="177" height="177" viewBox="0 0 177 177" xmlns="http://www.w3.org/2000/svg" xmlns:xlink="http://www.w3.org/1999/xlink"><defs><mask id="d" maskContentUnits="userSpaceOnUse" maskUnits="objectBoundingBox" x="-2" y="-2" width="128.561" height="128.561"><path fill="#fff" d="M28.564 28.564h128.561v128.561H28.564z"/><use xlink:href="#a"/></mask><mask id="e" maskContentUnits="userSpaceOnUse" maskUnits="objectBoundingBox" x="-2" y="-2" width="128.561" height="128.561"><path fill="#fff" d="M24.564 24.564h128.561v128.561H24.564z"/><use xlink:href="#b"/></mask><mask id="h" maskContentUnits="userSpaceOnUse" maskUnits="objectBoundingBox" x="0" y="0" width="108" height="159" fill="#fff"><use xlink:href="#c"/></mask><rect id="a" x="30.564" y="30.564" width="124.561" height="124.561" rx="10"/><rect id="b" x="26.564" y="26.564" width="124.561" height="124.561" rx="10"/><path d="M78.119 1.104C83.49-.186 92.232-.33 97.642.782l65.74 3.523L174.42 76.95c.83 5.464-1.658 13.055-5.574 16.972l-73.923 73.923a10.002 10.002 0 01-14.155 0L6.844 93.922C2.935 90.012.278 82.394.908 76.908L8.854 7.756 78.12 1.104z" id="f"/><path d="M35 21c0-1.657 1.34-3 3-3h84.51L143 38.04V174c0 1.657-1.346 3-3.001 3H38a3.005 3.005 0 01-3-3V21z" id="c"/></defs><g fill="none" fill-rule="evenodd"><g transform="rotate(45 94.258 89.43)"><use fill="#ECF8FC" xlink:href="#a"/><use stroke="#ECF8FC" mask="url(#d)" stroke-width="4" xlink:href="#a"/></g><g transform="rotate(45 90.258 85.43)"><use fill="#DBF2F9" xlink:href="#b"/><use stroke="#84D2E8" mask="url(#e)" stroke-width="4" xlink:href="#b"/></g><g transform="translate(-1)"><mask id="g" fill="#fff"><use xlink:href="#f"/></mask><path d="M39 25c0-1.657 1.34-3 3-3h84.51L147 42.04V178c0 1.657-1.346 3-3.001 3H42a3.005 3.005 0 01-3-3V25z" fill="#C1E9F4" opacity=".504" mask="url(#g)"/><g mask="url(#g)" stroke-width="4" stroke="#48BDDE" fill="#FFF"><use mask="url(#h)" xlink:href="#c"/></g><path stroke="#48BDDE" stroke-width="2" mask="url(#g)" d="M122 19v20h20"/><path fill="#DFF3F9" mask="url(#g)" d="M123 40h18v4h-18z"/><rect fill="#DBF2F9" mask="url(#g)" x="69" y="83" width="55" height="2" rx="1"/><rect fill="#DBF2F9" mask="url(#g)" x="69" y="91" width="55" height="2" rx="1"/><rect fill="#DBF2F9" mask="url(#g)" x="69" y="99" width="45" height="2" rx="1"/><rect fill="#DBF2F9" mask="url(#g)" x="69" y="111" width="55" height="2" rx="1"/><rect fill="#DBF2F9" mask="url(#g)" x="69" y="119" width="55" height="2" rx="1"/><rect fill="#DBF2F9" mask="url(#g)" x="69" y="127" width="45" height="2" rx="1"/><rect fill="#DBF2F9" mask="url(#g)" x="69" y="139" width="55" height="2" rx="1"/><rect fill="#DBF2F9" mask="url(#g)" x="69" y="147" width="55" height="2" rx="1"/><rect fill="#DBF2F9" mask="url(#g)" x="69" y="155" width="45" height="2" rx="1"/><path d="M56.443 85.787h-2.292v1.834h4.126v-7.793h-1.834v5.96z" fill="#48BDDE" mask="url(#g)" transform="rotate(45 56.214 83.724)"/><path d="M56.443 113.787h-2.292v1.834h4.126v-7.793h-1.834v5.96z" fill="#48BDDE" mask="url(#g)" transform="rotate(45 56.214 111.724)"/><path d="M56.443 141.787h-2.292v1.834h4.126v-7.793h-1.834v5.96z" fill="#48BDDE" mask="url(#g)" transform="rotate(45 56.214 139.724)"/><path d="M94.51 47.274l5.652 6.713c.567.674 1.026 1.94 1.026 2.819v3.771c0 .883-.66 1.312-1.458.964l-6.31-2.748-.024.258c-.07.738-.64 1.358-1.342 1.538l1.24 2.577c.384.796-.02 1.44-.908 1.44h-7.195c-.885 0-1.294-.641-.91-1.44l1.248-2.59c-.683-.194-1.228-.8-1.3-1.525l-.028-.278-6.355 2.768c-.798.348-1.458-.08-1.458-.964v-3.771c0-.88.46-2.145 1.027-2.819l5.633-6.691-.31-3.078s-1.64-12.901 6.031-12.901c7.672 0 6.03 12.9 6.03 12.9l-.288 3.057zm-6.285 31.589c1.988 0 3.6-6.357 3.6-8.328 0-1.971-1.612-3.569-3.6-3.569-1.989 0-3.6 1.598-3.6 3.569 0 1.971 1.611 8.328 3.6 8.328z" fill-opacity=".403" fill="#84D2E8" mask="url(#g)" transform="rotate(58 88.788 55.09)"/></g></g></svg>
